X:408
T:Air in Peeping Tom of Coventry.2voices RH.408
R:schot
S:Rev.R.Harrison’s MS,c1815,Cumbria
O:England
A:Temple Sowerby,Cumbria
Z:vmp.Simon Wilson. Review PJH, 2008.
V:1 name=”primo”
V:2 name=”secundo”
M:C
L:1/8
Q:2/4=80
K:Em
[V:1]|:e>f|g>ef>d B2B>^c|d2d>f a2g>a|b>fg>e B2e>^d|e2E2 E2:|
[V:2]|:e>f|g>ef>d B2B^c|d2d>f A2e>f|g>^de>G B>AG>F|E2E2 E2:|
%
[V:1]|:f2|(g>fg>a) b2(a>g)|(fd).d.f a2b>g|g>ea>f B2e^d|.e2(e^d) .g2(g>a)|b>c’a>f B2e^d|e2E2 E2:|
[V:2]|:z2|(B4 ^c4)|(d4 ^d4)|e2cA B2Ac|g2g>B e2e>f|g>ec>A G>AG>F|E2E2 E2:|

